X: 39
T:Missa Pro Defunctis / Agnus Dei
N: Derived from Jos0404f-Missa_Pro_Defunctis-Agnus.krn
C: Josquin des Prez
%%abc-version 2.0
%%abcx-abcm2ps-target-version 5.9.1 (29 Sep 2008)
%%abc-creator hum2abc beta
%%abcx-conversion-date 2019/02/12 16:15:39
%%abc-edited-by Jesse Rodin
%%abc-edited-by Will Watson 08/06/2011
%%abcx-initial-encoding-date 2012/01/21/
%%humdrum-veritas 3201425010
%%humdrum-veritas-data 998837889
%%linebreak <none>
%%barnumbers 0
L: 1/4
M: 2/1
Q: 1/2=120
V: 1 clef=treble
V: 2 clef=treble-8
V: 3 clef=treble-8
V: 4 clef=treble-8
V: 5 clef=treble-8
V: 6 clef=bass
K: C
[V:1] A8 | 
[V:2] e8 | 
[V:3] c8 | 
[V:4] z8 | 
[V:5] z8 | 
[V:6] A,8 | 
[V:1] A4A4 | 
[V:2] e4e4 | 
[V:3] c4c4 | 
[V:4] z8 | 
[V:5] z8 | 
[V:6] A,4A,4 | 
[V:1] A4A4 | 
[V:2] f4f4- | 
[V:3] c4c4 | 
[V:4] z8 | 
[V:5] z8 | 
[V:6] F,4F,4 | 
[V:1] F4G4 | 
[V:2] f2e2d4- | 
[V:3] d4d4 | 
[V:4] z8 | 
[V:5] z8 | 
[V:6] _B,8 | 
[V:1] A8- | 
[V:2] d2cBc4 | 
[V:3] e4A4- | 
[V:4] z8 | 
[V:5] z8 | 
[V:6] F,8 | 
[V:1] A8- | 
[V:2] d6cB | 
[V:3] A4A4 | 
[V:4] z8 | 
[V:5] F8 | 
[V:6] D,8 | 
[V:1] A8 | 
[V:2] A3Bc2A2 | 
[V:3] c4A2c2- | 
[V:4] z8 | 
[V:5] F4F4 | 
[V:6] z4F,4- | 
[V:1] z4G4 | 
[V:2] c3de4 | 
[V:3] c2BAG2c2- | 
[V:4] z8 | 
[V:5] G8 | 
[V:6] F,4E,4 | 
[V:1] A4c4- | 
[V:2] z2A4A2 | 
[V:3] cBAGF4 | 
[V:4] c8 | 
[V:5] F8 | 
[V:6] F,8 | 
[V:1] c2BAG3A | 
[V:2] c2d2e3f | 
[V:3] E8 | 
[V:4] c4c4 | 
[V:5] G8- | 
[V:6] C,8 | 
[V:1] B8 | 
[V:2] g8 | 
[V:3] z8 | 
[V:4] d8 | 
[V:5] G8 | 
[V:6] z8 | 
[V:1] A8 | 
[V:2] z4f4- | 
[V:3] z8 | 
[V:4] c8 | 
[V:5] A8- | 
[V:6] F,6E,2 | 
[V:1] A8- | 
[V:2] f2d2f4- | 
[V:3] F6D2 | 
[V:4] d8- | 
[V:5] A8- | 
[V:6] D,4D,4 | 
[V:1] A4A4 | 
[V:2] f2e2d2d2 | 
[V:3] F3FF2F2 | 
[V:4] d8 | 
[V:5] A8- | 
[V:6] D,4D,4 | 
[V:1] A8 ||  
[V:2] c8 ||  
[V:3] E8 ||  
[V:4] e8 ||  
[V:5] A8 ||  
[V:6] A,,8 ||  
[V:1]  [K:C] [K:clef=treble][M:2/1]A8 | 
[V:2]  [K:C] [K:clef=treble-8][M:2/1]c8 | 
[V:3]  [K:C] [K:clef=treble-8][M:2/1]E8 | 
[V:4]  [K:C] [K:clef=treble-8][M:2/1]z8 | 
[V:5]  [K:C] [K:clef=treble-8][M:2/1]z8 | 
[V:6]  [K:C] [K:clef=bass][M:2/1]A,,8 | 
[V:1] A4A4 | 
[V:2] d4c4 | 
[V:3] F4E4 | 
[V:4] z8 | 
[V:5] z4A4- | 
[V:6] D,4A,,4 | 
[V:1] A4A2G2 | 
[V:2] d4e4 | 
[V:3] F4E4 | 
[V:4] z8 | 
[V:5] A4A4 | 
[V:6] D,4C,4 | 
[V:1] F4E4- | 
[V:2] d4B4 | 
[V:3] F4G4 | 
[V:4] z8 | 
[V:5] _B4G4 | 
[V:6] D,4E,4 | 
[V:1] E2DCC4 | 
[V:2] c3BA2GF | 
[V:3] E8 | 
[V:4] z4e4- | 
[V:5] A8- | 
[V:6] A,,8- | 
[V:1] C4c4 | 
[V:2] E8 | 
[V:3] A3Bc4 | 
[V:4] e4e4 | 
[V:5] A8 | 
[V:6] A,,8 | 
[V:1] B4A4- | 
[V:2] z8 | 
[V:3] d4A4 | 
[V:4] f4d4 | 
[V:5] F8 | 
[V:6] D,4F,4 | 
[V:1] A2^G^FG4 | 
[V:2] z4e4 | 
[V:3] B8 | 
[V:4] e8- | 
[V:5] z8 | 
[V:6] E,8 | 
[V:1] A8- | 
[V:2] c6d2 | 
[V:3] A8 | 
[V:4] e8 | 
[V:5] z8 | 
[V:6] z4A,4- | 
[V:1] A8- | 
[V:2] e4f4- | 
[V:3] z4D4 | 
[V:4] c8 | 
[V:5] z4A4- | 
[V:6] A,2G,2F,2E,2 | 
[V:1] A8 | 
[V:2] f2edc2A2 | 
[V:3] F4F4 | 
[V:4] z8 | 
[V:5] A4A4 | 
[V:6] D,3C,/B,,/A,,2A,,2 | 
[V:1] z8 | 
[V:2] d4d4 | 
[V:3] G4z2G2 | 
[V:4] z8 | 
[V:5] _B2G2_B4 | 
[V:6] G,,8 | 
[V:1] z4G4 | 
[V:2] c4z4 | 
[V:3] A2c4B2 | 
[V:4] z4e4- | 
[V:5] A3G/F/EDE2 | 
[V:6] z8 | 
[V:1] A4c4- | 
[V:2] z8 | 
[V:3] c3BA4 | 
[V:4] e4e4 | 
[V:5] A8 | 
[V:6] z8 | 
[V:1] c2B2A4 | 
[V:2] z2d2d2d2 | 
[V:3] z4D4 | 
[V:4] f2d2f4 | 
[V:5] z8 | 
[V:6] z2D,2D,2D,2 | 
[V:1] G4G4- | 
[V:2] B8 | 
[V:3] G6E2 | 
[V:4] e3d/c/BAB2 | 
[V:5] z8 | 
[V:6] E,8 | 
[V:1] G2F2E2D2 | 
[V:2] c6BA | 
[V:3] E8- | 
[V:4] e8- | 
[V:5] E8- | 
[V:6] C,8- | 
[V:1] E8- | 
[V:2] G4A4 | 
[V:3] E8- | 
[V:4] e8- | 
[V:5] E8 | 
[V:6] C,4A,,4 | 
[V:1] E8 ||  
[V:2] A8 ||  
[V:3] E8 ||  
[V:4] e8 ||  
[V:5] E8 ||  
[V:6] A,,8 ||  
[V:1]  [K:C] [K:clef=treble][M:2/1]A8 | 
[V:2]  [K:C] [K:clef=treble-8][M:2/1]d8 | 
[V:3]  [K:C] [K:clef=treble-8][M:2/1]A8 | 
[V:4]  [K:C] [K:clef=treble-8][M:2/1]z8 | 
[V:5]  [K:C] [K:clef=treble-8][M:2/1]F8 | 
[V:6]  [K:C] [K:clef=bass][M:2/1]D,8 | 
[V:1] A4A4 | 
[V:2] f8 | 
[V:3] d4d4 | 
[V:4] z8 | 
[V:5] F4D4 | 
[V:6] D,4D,4 | 
[V:1] A4A4 | 
[V:2] e8 | 
[V:3] c4A2c2- | 
[V:4] z8 | 
[V:5] E4C3D | 
[V:6] A,,4A,,3B,, | 
[V:1] G2F2G4 | 
[V:2] z4c4 | 
[V:3] cBA2G4 | 
[V:4] c8 | 
[V:5] E2F4E2 | 
[V:6] C,2F,,2C,4 | 
[V:1] A8 | 
[V:2] A3Bc2d2 | 
[V:3] F8 | 
[V:4] c4A4 | 
[V:5] F8 | 
[V:6] F,,2F,2F,2F,2 | 
[V:1] z8 | 
[V:2] e2f2g4- | 
[V:3] z8 | 
[V:4] B4G3A | 
[V:5] z8 | 
[V:6] E,2D,2E,4- | 
[V:1] z8 | 
[V:2] g2fef4 | 
[V:3] z4z2F2 | 
[V:4] B2c4B2 | 
[V:5] z8 | 
[V:6] E,2D,C,D,4 | 
[V:1] z4G4 | 
[V:2] e8 | 
[V:3] G2C2c4- | 
[V:4] c8 | 
[V:5] z4C4 | 
[V:6] C,8 | 
[V:1] A4c4- | 
[V:2] f6f2 | 
[V:3] c4A3B | 
[V:4] z8 | 
[V:5] F4F4 | 
[V:6] z8 | 
[V:1] c2B2A4- | 
[V:2] e4c4 | 
[V:3] c8 | 
[V:4] z8 | 
[V:5] G4A4 | 
[V:6] C,8 | 
[V:1] A4G4 | 
[V:2] f4e3d | 
[V:3] z8 | 
[V:4] z4G4 | 
[V:5] _B8 | 
[V:6] D,4E,4 | 
[V:1] A8 | 
[V:2] c2B2A4 | 
[V:3] A4c3B | 
[V:4] c4c4 | 
[V:5] A8 | 
[V:6] F,8 | 
[V:1] z4G4 | 
[V:2] z8 | 
[V:3] AGd3^c^cB | 
[V:4] d4e4 | 
[V:5] z4C4 | 
[V:6] F,4E,4 | 
[V:1] A4B4 | 
[V:2] z4d4 | 
[V:3] d4D4 | 
[V:4] f8 | 
[V:5] F4F4 | 
[V:6] D,8 | 
[V:1] c6c/B/A/G/ | 
[V:2] e4c4 | 
[V:3] z4z2C2 | 
[V:4] e8 | 
[V:5] G4A4 | 
[V:6] C,8 | 
[V:1] FEA4G2 | 
[V:2] f4e3d | 
[V:3] D2D2E4 | 
[V:4] z4G4 | 
[V:5] _B8 | 
[V:6] z2F,2G,2E,2 | 
[V:1] A8 | 
[V:2] c2B2A2G2 | 
[V:3] z4A4- | 
[V:4] c4c4 | 
[V:5] A8- | 
[V:6] F,6E,2 | 
[V:1] A4A4 | 
[V:2] F2f4e2 | 
[V:3] A2B2c4 | 
[V:4] d4e4 | 
[V:5] A8- | 
[V:6] D,4C,4 | 
[V:1] A8 | 
[V:2] d8 | 
[V:3] F6G2 | 
[V:4] f8 | 
[V:5] A8- | 
[V:6] D,8 | 
[V:1] A8- | 
[V:2] c8- | 
[V:3] A4E4 | 
[V:4] e8- | 
[V:5] A8- | 
[V:6] A,,8- | 
[V:1] A8 |]  
[V:2] c8 |]  
[V:3] A8 |]  
[V:4] e8 |]  
[V:5] A8 |]  
[V:6] A,,8 |]  



